X:1
T:Title
%%score { ( 1 4 5 ) | ( 2 3 ) }
L:1/8
Q:1/4=100
M:3/4
K:Bb
V:1 treble nm="Grand Piano"
V:4 treble 
V:5 treble 
V:2 bass 
V:3 bass 
V:1
 [F,DF]2 [_DG]2 [F,=DF]2 | [B,D]3 G [B,DF]2 | [EG]2 [GB]2 [Ge]2 | [Fd]6 | f2 e2 [Fd]2 | %5
w: R.~Menthal * *|||||
 [Fc]2 [=EG]2 [CFA]2 | [DFB]2 [C=EA]2 [B,EG]2 | [F,A,F]6 | F2 z2 [B,DF]2 | z2 B2 z2 | %10
w: |||||
 [Ee]2 d2 [G_d]2 | [Fd]6 | f2 e2 [Fd]2 | [Cc]2 d2 [DFB]2 | F2- [FB]2 [B,=EG]2 | [A,F]6 | %16
w: ||||||
 [B,DF]2 D2 [B,DF]2 | [Fd]2 [Ec]2 [DB]2 | c2 B2 G2 | [DF]6 | [EG]2 B2 [B,GB]2 | [B,F]4 ec | %22
w: ||||||
 B2 d2 [F,A,Ec]2 | [B,DB]6 |] %24
w: ||
V:2
 z2 E,2 B,,2 | z2 z E B,,2 | [E,B,]4 [E,B,]2 | [B,,B,]6 | [D,B,]2 [C,A,]2 [B,,B,]2 | %5
 A,,2 B,,2 A,,2 | G,,2 C,2 C,2 | z2 z2 E2 | z2 G2 B,,2 | [B,,F,]4 [B,,_A,]2 | %10
 G,2 [F,F]2 [B,,=E,]2 | [B,,F,]6 | [D,B,]2 [C,A,]2 [B,,B,]2 | A,,2 [B,,B,]2 G,,2 | z2 D2 C,2 | %15
 F,6 | z2 B,2 B,,2 | [B,,F,]4 [B,,F,]2 | [E,G,E]4 [E,B,E]2 | [B,,B,]6 | z2 G2 E,2 | %21
 z2[K:treble] f2[K:bass] B,C | [F,F]4 z2 | B,,6 |] %24
V:3
 B,,4 z2 | B,,4 z2 | x6 | x6 | x6 | x6 | x6 | F,,6 | B,,4 z2 | x6 | B,,4 z2 | x6 | x6 | x6 | %14
 C,4 z2 | x6 | B,,4 z2 | x6 | x6 | x6 | [E,B,]4 z2 | D,4[K:treble][K:bass] E,2 | D2 B,2 F,,2 | %23
 x6 |] %24
V:4
 x6 | x6 | x6 | x6 | F4 z2 | C4 z2 | x6 | x6 | [B,D]4 z2 | c2 z G, [DB]2 | x6 | x6 | F4 z2 | %13
 F4 z2 | [CA]2 z2 z2 | x6 | x6 | x6 | x6 | x6 | x6 | z2 z2 G2 | x6 | x6 |] %24
V:5
 x6 | x6 | x6 | x6 | x6 | x6 | x6 | x6 | x6 | D4 z2 | x6 | x6 | x6 | x6 | x6 | x6 | x6 | x6 | x6 | %19
 x6 | x6 | x6 | x6 | x6 |] %24

